packages/icons/assets/Branch.svg

<svg xmlns="http://www.w3.org/2000/svg" viewBox="0 0 16 16"><path fill="#414141" d="M14.992188 14.988281v-3.992187h-3.40625l-1-1H9.003906v4.992187h5.988282m0-8.984375V2.011719h-3.40625l-1-1-1.582032.003906v4.988281h5.988282m1 9.980469H8.003906v-2.992187H.0195312V.015625h.9999998v2.992187h6.984375V.015625H11l.996094 1h3.996094V7H8.003906V4.007812H1.019531v7.984376h6.984375V9H11l.996094.996094h3.996094Zm0 0"/></svg>

<svg xmlns="http://www.w3.org/2000/svg" viewBox="0 0 16 16"><path fill="#414141" d="M15 14.99v-4h-3.41l-1-1H9v5h6M15 6V2.01h-3.41l-1-1H9v5h6m1 9.97H8V13H.02V.02h1V3H8V0h3l1 1h4v6H8V4H1.02v8H8V9h3l1 1h4Zm0 0"/></svg>
